icons/code.svg

<svg fill="none" height="28" viewBox="0 0 28 28" width="28" xmlns="http://www.w3.org/2000/svg"><path d="m18.8156 13.5114c1.3319 0 2.3623.5851 3.0352 1.5364.687.9718.9604 2.2596.9604 3.5592-.0001 1.2269-.1981 2.4771-.8138 3.4466-.6581 1.036-1.7291 1.649-3.1818 1.6491-1.2945 0-2.3017-.4872-2.978-1.3593-.7798-1.0062-1.0176-2.3935-1.0177-3.7364 0-1.2594.2563-2.5038.8943-3.4627.668-1.0038 1.7198-1.6329 3.1014-1.6329zm1.1321-8.94832c.3298-.2692.8143-.28112 1.1572-.00179.392.31941.4499.8975.1306 1.28957l-14.10651 17.31524c-.31934.392-.89748.4515-1.28956.1324-.39146-.3193-.45084-.8958-.13236-1.2878l14.10833-17.31705zm-2.157 17.08632c.259.1373.5899.2218 1.0249.2218.8633-.0001 1.3324-.3239 1.6347-.7995.3447-.5428.5293-1.3839.5294-2.4647 0-.4255-.0383-.8176-.1055-1.1697zm1.0249-6.3065c-.7507 0-1.2389.3068-1.5776.8156-.3683.5538-.5866 1.4001-.5866 2.4485 0 .5013.0423.9487.118 1.3379l3.1408-4.2908c-.2849-.1988-.6408-.3112-1.0946-.3112zm-11.53279-10.75478c.25647-.27493.65531-.36476 1.00518-.22715.34966.13805.58129.47539.58129.85137v7.67476h.23072l.18423.0179c.4174.0853.73157.4553.73157.8979-.0004.4423-.31443.8108-.73157.8961l-.18423.0197h-2.3323c-.5055 0-.91533-.4104-.91575-.9158 0-.5058.40999-.9158.91575-.9158h.27007v-5.35139l-.26471.28438-.13951.12163c-.34678.24646-.83011.2242-1.15363-.07691-.36989-.34493-.38964-.92505-.04471-1.29494z" fill="#fff"/></svg>

<svg width="28" height="28" viewBox="0 0 28 28" fill="none" xmlns="http://www.w3.org/2000/svg">
<path d="M18.8156 13.5114C20.1475 13.5114 21.1779 14.0965 21.8508 15.0478C22.5378 16.0196 22.8112 17.3074 22.8112 18.607C22.8111 19.8339 22.6131 21.0841 21.9974 22.0536C21.3393 23.0896 20.2683 23.7026 18.8156 23.7027C17.5211 23.7027 16.5139 23.2155 15.8376 22.3434C15.0578 21.3372 14.82 19.9499 14.8199 18.607C14.8199 17.3476 15.0762 16.1032 15.7142 15.1443C16.3822 14.1405 17.434 13.5114 18.8156 13.5114ZM19.9477 4.56308C20.2775 4.29388 20.762 4.28196 21.1049 4.56129C21.4969 4.8807 21.5548 5.45879 21.2355 5.85086L7.12899 23.1661C6.80965 23.5581 6.23151 23.6176 5.83943 23.2985C5.44797 22.9792 5.38859 22.4027 5.70707 22.0107L19.8154 4.69365L19.9477 4.56308ZM17.7907 21.6494C18.0497 21.7867 18.3806 21.8712 18.8156 21.8712C19.6789 21.8711 20.148 21.5473 20.4503 21.0717C20.795 20.5289 20.9796 19.6878 20.9797 18.607C20.9797 18.1815 20.9414 17.7894 20.8742 17.4373L17.7907 21.6494ZM18.8156 15.3429C18.0649 15.3429 17.5767 15.6497 17.238 16.1585C16.8697 16.7123 16.6514 17.5586 16.6514 18.607C16.6514 19.1083 16.6937 19.5557 16.7694 19.9449L19.9102 15.6541C19.6253 15.4553 19.2694 15.3429 18.8156 15.3429ZM7.28281 4.58812C7.53928 4.31319 7.93812 4.22336 8.28799 4.36097C8.63765 4.49902 8.86928 4.83636 8.86928 5.21234V12.8871H9.1L9.28423 12.905C9.70163 12.9903 10.0158 13.3603 10.0158 13.8029C10.0154 14.2452 9.70137 14.6137 9.28423 14.699L9.1 14.7187H6.7677C6.2622 14.7187 5.85237 14.3083 5.85195 13.8029C5.85195 13.2971 6.26194 12.8871 6.7677 12.8871H7.03777V7.53571L6.77306 7.82009L6.63355 7.94172C6.28677 8.18818 5.80344 8.16592 5.47992 7.86481C5.11003 7.51988 5.09028 6.93976 5.43521 6.56987L7.28281 4.58812Z" fill="white"/>
</svg>
